X: 23123
T: Laurel's
R: reel
M: 4/4
K: Gmajor
|:B3c dBGA|BedB AGEG|AE E2 cBAG|FAGE DEGA|
B3c dBGA|BedB AGEG|EA A2 cBAG|1 DGFA G3A:|2 DGFA GABc||
d3e dcBc|dggf gd (3Bcd|eA A2 cBAG|FAGE DEGA|
d3e dcBc|dggf gd (3Bcd|eA A2 cBAG|DGFA GABc|
d3e dcBc|dggf gd (3Bcd|eA A2 cBAG|FAGE DEGA|
B3c DEGA|BedB AGEG|EA A2 cBAG|DGFA G4||

